X: 35393
T: Rossaviel
R: reel
M: 4/4
K: Gmajor
A|GEDE G2GA|Bdde dcBA|BGEE EFGA|BGEE E3F|
GEDE GFGA|Bdef gage|=fdce dBGB|ABGGG2 de|
gfef dfag|fdef d3e|dBAB GABd|cBAG E3A|
GEDE GFGA|Bdef g3e|=fdce dBGB|ABGG G3||

